X: 292
P: Longways for as many as will
M: C|
L: 1/8
K: C
V: 1
|:\
g2c2 a2c2 | g2c2 a2c2 | g2c2 a2c2 | g2fe d4 |\
d2G2 e2G2 | d2G2 e2G2 | c2BA A3G  | G8 :|
|:\
g2c2 a2c2 | g2c2 a2c2 | f2ed d3c  | c8 :|
V: 2 clef=bass middle=d
|:\
c2c2 f4 | c2c2 F4 | c2c2 c2c2 | c2F2 G2G2 |\
|:\
c2B2 ABcd |
e2d2 cc'ba | ^g2ad e2E2 | A2AB c2^c2 |\
d4 z2d2 | d2d2 g4 | z4 z2G2 | G2G2 c4 |\
c2c2 c2c2 | c2c2 c2c2 | B2cF G2G2 | c8 :|

